images/171930.svg

<?xml version="1.0" encoding="UTF-8"?>
<svg xmlns="http://www.w3.org/2000/svg" xmlns:xlink="http://www.w3.org/1999/xlink" width="300pt" height="300pt" viewBox="0 0 300 300" version="1.1">
<defs>
<g>
<symbol overflow="visible" id="glyph0-0">
<path style="stroke:none;" d="M 0.59375 2.125 L 0.59375 -8.46875 L 6.59375 -8.46875 L 6.59375 2.125 Z M 1.265625 1.453125 L 5.9375 1.453125 L 5.9375 -7.78125 L 1.265625 -7.78125 Z M 1.265625 1.453125 "/>
</symbol>
<symbol overflow="visible" id="glyph0-1">
<path style="stroke:none;" d="M 4.734375 -7.953125 C 3.867188 -7.953125 3.179688 -7.628906 2.671875 -6.984375 C 2.171875 -6.347656 1.921875 -5.472656 1.921875 -4.359375 C 1.921875 -3.265625 2.171875 -2.394531 2.671875 -1.75 C 3.179688 -1.113281 3.867188 -0.796875 4.734375 -0.796875 C 5.585938 -0.796875 6.265625 -1.113281 6.765625 -1.75 C 7.273438 -2.394531 7.53125 -3.265625 7.53125 -4.359375 C 7.53125 -5.472656 7.273438 -6.347656 6.765625 -6.984375 C 6.265625 -7.628906 5.585938 -7.953125 4.734375 -7.953125 Z M 4.734375 -8.90625 C 5.953125 -8.90625 6.925781 -8.492188 7.65625 -7.671875 C 8.394531 -6.847656 8.765625 -5.742188 8.765625 -4.359375 C 8.765625 -2.984375 8.394531 -1.882812 7.65625 -1.0625 C 6.925781 -0.238281 5.953125 0.171875 4.734375 0.171875 C 3.503906 0.171875 2.519531 -0.238281 1.78125 -1.0625 C 1.039062 -1.882812 0.671875 -2.984375 0.671875 -4.359375 C 0.671875 -5.742188 1.039062 -6.847656 1.78125 -7.671875 C 2.519531 -8.492188 3.503906 -8.90625 4.734375 -8.90625 Z M 4.734375 -8.90625 "/>
</symbol>
<symbol overflow="visible" id="glyph0-2">
<path style="stroke:none;" d="M 1.171875 -8.75 L 2.359375 -8.75 L 2.359375 -5.15625 L 6.65625 -5.15625 L 6.65625 -8.75 L 7.84375 -8.75 L 7.84375 0 L 6.65625 0 L 6.65625 -4.171875 L 2.359375 -4.171875 L 2.359375 0 L 1.171875 0 Z M 1.171875 -8.75 "/>
</symbol>
</g>
</defs>
<g id="surface27525">
<rect x="0" y="0" width="300" height="300" style="fill:rgb(100%,100%,100%);fill-opacity:1;stroke:none;"/>
<path style="fill:none;stroke-width:1.2;stroke-linecap:butt;stroke-linejoin:miter;stroke:rgb(100%,0%,0%);stroke-opacity:1;stroke-miterlimit:10;" d="M 169.890625 127.480469 L 184.425781 129.6875 "/>
<path style="fill:none;stroke-width:1.2;stroke-linecap:butt;stroke-linejoin:miter;stroke:rgb(0%,0%,0%);stroke-opacity:1;stroke-miterlimit:10;" d="M 184.425781 129.6875 L 198.960938 131.894531 "/>
<path style="fill:none;stroke-width:1.2;stroke-linecap:butt;stroke-linejoin:miter;stroke:rgb(0%,0%,0%);stroke-opacity:1;stroke-miterlimit:10;" d="M 151.53125 150.449219 L 160.710938 138.964844 "/>
<path style="fill:none;stroke-width:1.2;stroke-linecap:butt;stroke-linejoin:miter;stroke:rgb(100%,0%,0%);stroke-opacity:1;stroke-miterlimit:10;" d="M 160.710938 138.964844 L 169.890625 127.480469 "/>
<path style=" stroke:none;fill-rule:nonzero;fill:rgb(100%,100%,100%);fill-opacity:1;" d="M 164.890625 120.480469 L 174.890625 120.480469 L 174.890625 134.480469 L 164.890625 134.480469 Z M 164.890625 120.480469 "/>
<g style="fill:rgb(100%,0%,0%);fill-opacity:1;">
  <use xlink:href="#glyph0-1" x="164.890625" y="131.619141"/>
</g>
<path style="fill:none;stroke-width:1.2;stroke-linecap:butt;stroke-linejoin:miter;stroke:rgb(0%,0%,0%);stroke-opacity:1;stroke-miterlimit:10;" d="M 198.960938 131.894531 L 209.675781 159.277344 "/>
<path style="fill:none;stroke-width:1.2;stroke-linecap:butt;stroke-linejoin:miter;stroke:rgb(0%,0%,0%);stroke-opacity:1;stroke-miterlimit:10;" d="M 206.476562 132.113281 L 215.046875 154.019531 "/>
<path style="fill:none;stroke-width:1.2;stroke-linecap:butt;stroke-linejoin:miter;stroke:rgb(0%,0%,0%);stroke-opacity:1;stroke-miterlimit:10;" d="M 217.320312 108.925781 L 198.960938 131.894531 "/>
<path style="fill:none;stroke-width:1.2;stroke-linecap:butt;stroke-linejoin:miter;stroke:rgb(0%,0%,0%);stroke-opacity:1;stroke-miterlimit:10;" d="M 209.675781 159.277344 L 191.316406 182.246094 "/>
<path style="fill:none;stroke-width:1.2;stroke-linecap:butt;stroke-linejoin:miter;stroke:rgb(0%,0%,0%);stroke-opacity:1;stroke-miterlimit:10;" d="M 209.675781 159.277344 L 238.746094 163.691406 "/>
<path style="fill:none;stroke-width:1.2;stroke-linecap:butt;stroke-linejoin:miter;stroke:rgb(0%,0%,0%);stroke-opacity:1;stroke-miterlimit:10;" d="M 188.09375 183.507812 L 193.449219 197.199219 "/>
<path style="fill:none;stroke-width:1.2;stroke-linecap:butt;stroke-linejoin:miter;stroke:rgb(100%,0%,0%);stroke-opacity:1;stroke-miterlimit:10;" d="M 193.449219 197.199219 L 198.808594 210.890625 "/>
<path style="fill:none;stroke-width:1.2;stroke-linecap:butt;stroke-linejoin:miter;stroke:rgb(0%,0%,0%);stroke-opacity:1;stroke-miterlimit:10;" d="M 194.539062 180.984375 L 199.894531 194.675781 "/>
<path style="fill:none;stroke-width:1.2;stroke-linecap:butt;stroke-linejoin:miter;stroke:rgb(100%,0%,0%);stroke-opacity:1;stroke-miterlimit:10;" d="M 199.894531 194.675781 L 205.25 208.367188 "/>
<path style="fill:none;stroke-width:1.2;stroke-linecap:butt;stroke-linejoin:miter;stroke:rgb(0%,0%,0%);stroke-opacity:1;stroke-miterlimit:10;" d="M 191.316406 182.246094 L 162.246094 177.832031 "/>
<path style=" stroke:none;fill-rule:nonzero;fill:rgb(100%,100%,100%);fill-opacity:1;" d="M 197.027344 202.628906 L 207.027344 202.628906 L 207.027344 216.628906 L 197.027344 216.628906 Z M 197.027344 202.628906 "/>
<g style="fill:rgb(100%,0%,0%);fill-opacity:1;">
  <use xlink:href="#glyph0-1" x="197.027344" y="213.767578"/>
</g>
<path style="fill:none;stroke-width:1.2;stroke-linecap:butt;stroke-linejoin:miter;stroke:rgb(0%,0%,0%);stroke-opacity:1;stroke-miterlimit:10;" d="M 162.246094 177.832031 L 153.066406 189.316406 "/>
<path style="fill:none;stroke-width:1.2;stroke-linecap:butt;stroke-linejoin:miter;stroke:rgb(100%,0%,0%);stroke-opacity:1;stroke-miterlimit:10;" d="M 153.066406 189.316406 L 143.886719 200.800781 "/>
<path style="fill:none;stroke-width:1.2;stroke-linecap:butt;stroke-linejoin:miter;stroke:rgb(0%,0%,0%);stroke-opacity:1;stroke-miterlimit:10;" d="M 162.246094 177.832031 L 151.53125 150.449219 "/>
<path style="fill:none;stroke-width:1.2;stroke-linecap:butt;stroke-linejoin:miter;stroke:rgb(0%,0%,0%);stroke-opacity:1;stroke-miterlimit:10;" d="M 167.617188 172.574219 L 159.046875 150.664062 "/>
<path style=" stroke:none;fill-rule:nonzero;fill:rgb(100%,100%,100%);fill-opacity:1;" d="M 124.886719 193.800781 L 143.886719 193.800781 L 143.886719 207.800781 L 124.886719 207.800781 Z M 124.886719 193.800781 "/>
<g style="fill:rgb(100%,0%,0%);fill-opacity:1;">
  <use xlink:href="#glyph0-2" x="124.886719" y="204.939453"/>
  <use xlink:href="#glyph0-1" x="133.910156" y="204.939453"/>
</g>
<path style="fill:none;stroke-width:1.2;stroke-linecap:butt;stroke-linejoin:miter;stroke:rgb(0%,0%,0%);stroke-opacity:1;stroke-miterlimit:10;" d="M 151.53125 150.449219 L 122.460938 146.035156 "/>
<path style="fill:none;stroke-width:1.2;stroke-linecap:butt;stroke-linejoin:miter;stroke:rgb(0%,0%,0%);stroke-opacity:1;stroke-miterlimit:10;" d="M 122.460938 146.035156 L 111.75 118.648438 "/>
<path style="fill:none;stroke-width:1.2;stroke-linecap:butt;stroke-linejoin:miter;stroke:rgb(0%,0%,0%);stroke-opacity:1;stroke-miterlimit:10;" d="M 114.949219 145.816406 L 106.378906 123.910156 "/>
<path style="fill:none;stroke-width:1.2;stroke-linecap:butt;stroke-linejoin:miter;stroke:rgb(0%,0%,0%);stroke-opacity:1;stroke-miterlimit:10;" d="M 104.105469 169.003906 L 122.460938 146.035156 "/>
<path style="fill:none;stroke-width:1.2;stroke-linecap:butt;stroke-linejoin:miter;stroke:rgb(0%,0%,0%);stroke-opacity:1;stroke-miterlimit:10;" d="M 111.75 118.648438 L 82.679688 114.234375 "/>
<path style="fill:none;stroke-width:1.2;stroke-linecap:butt;stroke-linejoin:miter;stroke:rgb(0%,0%,0%);stroke-opacity:1;stroke-miterlimit:10;" d="M 82.679688 114.234375 L 64.320312 137.203125 "/>
<path style="fill:none;stroke-width:1.2;stroke-linecap:butt;stroke-linejoin:miter;stroke:rgb(0%,0%,0%);stroke-opacity:1;stroke-miterlimit:10;" d="M 86.246094 120.851562 L 71.5625 139.226562 "/>
<path style="fill:none;stroke-width:1.2;stroke-linecap:butt;stroke-linejoin:miter;stroke:rgb(0%,0%,0%);stroke-opacity:1;stroke-miterlimit:10;" d="M 64.320312 137.203125 L 49.785156 134.996094 "/>
<path style="fill:none;stroke-width:1.2;stroke-linecap:butt;stroke-linejoin:miter;stroke:rgb(100%,0%,0%);stroke-opacity:1;stroke-miterlimit:10;" d="M 49.785156 134.996094 L 35.25 132.789062 "/>
<path style="fill:none;stroke-width:1.2;stroke-linecap:butt;stroke-linejoin:miter;stroke:rgb(0%,0%,0%);stroke-opacity:1;stroke-miterlimit:10;" d="M 64.320312 137.203125 L 75.03125 164.585938 "/>
<path style=" stroke:none;fill-rule:nonzero;fill:rgb(100%,100%,100%);fill-opacity:1;" d="M 16.25 125.789062 L 35.25 125.789062 L 35.25 139.789062 L 16.25 139.789062 Z M 16.25 125.789062 "/>
<g style="fill:rgb(100%,0%,0%);fill-opacity:1;">
  <use xlink:href="#glyph0-2" x="16.25" y="136.927734"/>
  <use xlink:href="#glyph0-1" x="25.273438" y="136.927734"/>
</g>
<path style="fill:none;stroke-width:1.2;stroke-linecap:butt;stroke-linejoin:miter;stroke:rgb(0%,0%,0%);stroke-opacity:1;stroke-miterlimit:10;" d="M 75.03125 164.585938 L 104.105469 169.003906 "/>
<path style="fill:none;stroke-width:1.2;stroke-linecap:butt;stroke-linejoin:miter;stroke:rgb(0%,0%,0%);stroke-opacity:1;stroke-miterlimit:10;" d="M 78.980469 158.1875 L 102.234375 161.71875 "/>
<path style="fill:none;stroke-width:1.2;stroke-linecap:butt;stroke-linejoin:miter;stroke:rgb(0%,0%,0%);stroke-opacity:1;stroke-miterlimit:10;" d="M 238.746094 163.691406 L 244.101562 177.382812 "/>
<path style="fill:none;stroke-width:1.2;stroke-linecap:butt;stroke-linejoin:miter;stroke:rgb(100%,0%,0%);stroke-opacity:1;stroke-miterlimit:10;" d="M 244.101562 177.382812 L 249.457031 191.074219 "/>
<path style="fill:none;stroke-width:1.2;stroke-linecap:butt;stroke-linejoin:miter;stroke:rgb(0%,0%,0%);stroke-opacity:1;stroke-miterlimit:10;" d="M 238.746094 163.691406 L 257.105469 140.722656 "/>
<path style="fill:none;stroke-width:1.2;stroke-linecap:butt;stroke-linejoin:miter;stroke:rgb(0%,0%,0%);stroke-opacity:1;stroke-miterlimit:10;" d="M 235.175781 157.074219 L 249.863281 138.699219 "/>
<path style=" stroke:none;fill-rule:nonzero;fill:rgb(100%,100%,100%);fill-opacity:1;" d="M 240.457031 184.074219 L 259.457031 184.074219 L 259.457031 198.074219 L 240.457031 198.074219 Z M 240.457031 184.074219 "/>
<g style="fill:rgb(100%,0%,0%);fill-opacity:1;">
  <use xlink:href="#glyph0-1" x="240.457031" y="195.212891"/>
  <use xlink:href="#glyph0-2" x="249.902344" y="195.212891"/>
</g>
<path style="fill:none;stroke-width:1.2;stroke-linecap:butt;stroke-linejoin:miter;stroke:rgb(0%,0%,0%);stroke-opacity:1;stroke-miterlimit:10;" d="M 257.105469 140.722656 L 246.390625 113.339844 "/>
<path style="fill:none;stroke-width:1.2;stroke-linecap:butt;stroke-linejoin:miter;stroke:rgb(0%,0%,0%);stroke-opacity:1;stroke-miterlimit:10;" d="M 246.390625 113.339844 L 255.570312 101.855469 "/>
<path style="fill:none;stroke-width:1.2;stroke-linecap:butt;stroke-linejoin:miter;stroke:rgb(100%,0%,0%);stroke-opacity:1;stroke-miterlimit:10;" d="M 255.570312 101.855469 L 264.75 90.371094 "/>
<path style="fill:none;stroke-width:1.2;stroke-linecap:butt;stroke-linejoin:miter;stroke:rgb(0%,0%,0%);stroke-opacity:1;stroke-miterlimit:10;" d="M 246.390625 113.339844 L 217.320312 108.925781 "/>
<path style="fill:none;stroke-width:1.2;stroke-linecap:butt;stroke-linejoin:miter;stroke:rgb(0%,0%,0%);stroke-opacity:1;stroke-miterlimit:10;" d="M 242.445312 119.738281 L 219.1875 116.207031 "/>
<path style=" stroke:none;fill-rule:nonzero;fill:rgb(100%,100%,100%);fill-opacity:1;" d="M 255.75 83.371094 L 274.75 83.371094 L 274.75 97.371094 L 255.75 97.371094 Z M 255.75 83.371094 "/>
<g style="fill:rgb(100%,0%,0%);fill-opacity:1;">
  <use xlink:href="#glyph0-1" x="255.75" y="94.509766"/>
  <use xlink:href="#glyph0-2" x="265.195312" y="94.509766"/>
</g>
</g>
</svg>

<svg xmlns="http://www.w3.org/2000/svg" xmlns:xlink="http://www.w3.org/1999/xlink" width="300pt" height="300pt" viewBox="0 0 300 300"><defs><symbol overflow="visible"><path d="M.594 2.125V-8.47h6V2.126zm.672-.672h4.671V-7.78h-4.67zm0 0"/></symbol><symbol overflow="visible" id="a"><path d="M4.734-7.953c-.867 0-1.554.324-2.062.97-.5.635-.75 1.51-.75 2.624 0 1.094.25 1.965.75 2.61.508.637 1.195.953 2.062.953.852 0 1.532-.316 2.032-.953.507-.645.765-1.516.765-2.61 0-1.113-.257-1.988-.764-2.624-.5-.645-1.18-.97-2.032-.97zm0-.953c1.22 0 2.192.414 2.922 1.234.74.824 1.11 1.93 1.11 3.313 0 1.376-.37 2.477-1.11 3.298C6.926-.24 5.953.17 4.734.17c-1.23 0-2.214-.41-2.953-1.234C1.04-1.882.673-2.984.673-4.36c0-1.382.367-2.488 1.11-3.312.738-.82 1.722-1.234 2.952-1.234zm0 0"/></symbol><symbol overflow="visible" id="b"><path d="M1.172-8.75H2.36v3.594h4.296V-8.75h1.188V0H6.656v-4.172H2.36V0H1.17zm0 0"/></symbol></defs><g><path fill="#fff" d="M0 0h300v300H0z"/><path d="M169.89 127.48l14.536 2.207" stroke-width="1.2" stroke="#f00" stroke-miterlimit="10" fill="none"/><path d="M184.426 129.688l14.535 2.207M151.53 150.45l9.18-11.485" stroke-width="1.2" stroke="#000" stroke-miterlimit="10" fill="none"/><path d="M160.71 138.965l9.18-11.485" stroke-width="1.2" stroke="#f00" stroke-miterlimit="10" fill="none"/><path d="M164.89 120.48h10v14h-10zm0 0" fill="#fff"/><use xlink:href="#a" x="164.891" y="131.619" fill="#f00"/><path d="M198.96 131.895l10.716 27.382M206.477 132.113l8.57 21.907M217.32 108.926l-18.36 22.97M209.676 159.277l-18.36 22.97M209.676 159.277l29.07 4.414M188.094 183.508l5.355 13.69" stroke-width="1.2" stroke="#000" stroke-miterlimit="10" fill="none"/><path d="M193.45 197.2l5.36 13.69" stroke-width="1.2" stroke="#f00" stroke-miterlimit="10" fill="none"/><path d="M194.54 180.984l5.355 13.692" stroke-width="1.2" stroke="#000" stroke-miterlimit="10" fill="none"/><path d="M199.895 194.676l5.355 13.69" stroke-width="1.2" stroke="#f00" stroke-miterlimit="10" fill="none"/><path d="M191.316 182.246l-29.07-4.414" stroke-width="1.2" stroke="#000" stroke-miterlimit="10" fill="none"/><path d="M197.027 202.63h10v14h-10zm0 0" fill="#fff"/><use xlink:href="#a" x="197.027" y="213.768" fill="#f00"/><path d="M162.246 177.832l-9.18 11.484" stroke-width="1.2" stroke="#000" stroke-miterlimit="10" fill="none"/><path d="M153.066 189.316l-9.18 11.485" stroke-width="1.2" stroke="#f00" stroke-miterlimit="10" fill="none"/><path d="M162.246 177.832L151.53 150.45M167.617 172.574l-8.57-21.91" stroke-width="1.2" stroke="#000" stroke-miterlimit="10" fill="none"/><path d="M124.887 193.8h19v14h-19zm0 0" fill="#fff"/><g fill="#f00"><use xlink:href="#b" x="124.887" y="204.939"/><use xlink:href="#a" x="133.91" y="204.939"/></g><path d="M151.53 150.45l-29.07-4.415M122.46 146.035l-10.71-27.387M114.95 145.816l-8.57-21.906M104.105 169.004l18.356-22.97M111.75 118.648l-29.07-4.414M82.68 114.234l-18.36 22.97M86.246 120.852l-14.683 18.375M64.32 137.203l-14.535-2.207" stroke-width="1.2" stroke="#000" stroke-miterlimit="10" fill="none"/><path d="M49.785 134.996L35.25 132.79" stroke-width="1.2" stroke="#f00" stroke-miterlimit="10" fill="none"/><path d="M64.32 137.203l10.71 27.383" stroke-width="1.2" stroke="#000" stroke-miterlimit="10" fill="none"/><path d="M16.25 125.79h19v14h-19zm0 0" fill="#fff"/><g fill="#f00"><use xlink:href="#b" x="16.25" y="136.928"/><use xlink:href="#a" x="25.273" y="136.928"/></g><path d="M75.03 164.586l29.075 4.418M78.98 158.188l23.254 3.53M238.746 163.69l5.356 13.693" stroke-width="1.2" stroke="#000" stroke-miterlimit="10" fill="none"/><path d="M244.102 177.383l5.355 13.69" stroke-width="1.2" stroke="#f00" stroke-miterlimit="10" fill="none"/><path d="M238.746 163.69l18.36-22.967M235.176 157.074l14.687-18.375" stroke-width="1.2" stroke="#000" stroke-miterlimit="10" fill="none"/><path d="M240.457 184.074h19v14h-19zm0 0" fill="#fff"/><g fill="#f00"><use xlink:href="#a" x="240.457" y="195.213"/><use xlink:href="#b" x="249.902" y="195.213"/></g><path d="M257.105 140.723L246.39 113.34M246.39 113.34l9.18-11.485" stroke-width="1.2" stroke="#000" stroke-miterlimit="10" fill="none"/><path d="M255.57 101.855l9.18-11.484" stroke-width="1.2" stroke="#f00" stroke-miterlimit="10" fill="none"/><path d="M246.39 113.34l-29.07-4.414M242.445 119.738l-23.257-3.53" stroke-width="1.2" stroke="#000" stroke-miterlimit="10" fill="none"/><path d="M255.75 83.37h19v14h-19zm0 0" fill="#fff"/><g fill="#f00"><use xlink:href="#a" x="255.75" y="94.51"/><use xlink:href="#b" x="265.195" y="94.51"/></g></g></svg>
